packages/web-icons/svgs/girl_1.svg

<svg viewBox="0 0 44 49" xmlns="http://www.w3.org/2000/svg" class="ridi_icon"><path d="M32.8 10.3c-3.8-2.5-7-4-10.4-4.2V6L18 .6c-.3-.4-.8-.6-1.4-.6-.6 0-1.1.3-1.4.8l-3.4 4.5c-.4-.4-1-.5-1.4-.2L7.5 7.4c-.4.4-.5 1-.1 1.4L2.2 11c-.5.2-1 .7-1.1 1.2-.1.5-.1 1.2.3 1.6l3.8 4.9c-1.1 4.8-1 11.3-4.6 21-.1.3-.2.6 0 .9 1.2 2.2 9.8 6.9 13.2 4.5l.3-.2c.1-.1.3-.1.5 0 8.3 4.3 6.6 4.3 14.8 0 .2-.1.4-.1.5 0l.3.2c3.4 2.4 12-2.3 13.2-4.5.2-.3.1-.6 0-.9-6.2-16.8-1.4-23.9-10.6-29.4zm-17.3-6c.1-.2.3-.3.5-.3s.4.1.5.2l1.5 2c.1.2.2.4.1.6-.1.2-.2.3-.4.4l-2.3 1-.1-.3L14 6.3l1.5-2zm-4.9 4.2c.5-.4 1.1-.3 1.4.1l.6.7.3.4c.4.4.3 1.1-.2 1.4-.4.4-1.1.3-1.4-.1l-.8-1c-.4-.5-.3-1.1.1-1.5zm-5.4 4.9c-.1-.2-.1-.4-.1-.6 0-.2.2-.4.4-.4l2.3-1 .7.9.8 1-1.5 2c-.1.1-.3.2-.5.2s-.4-.1-.5-.2l-.4-.4-1.2-1.5zm23.6 27c-8.6 4.3-4.8 4.3-13.5 0-2.5-1.3-4.1-3.9-4.1-6.7v-9.8c0-.1.1-.2.3-.2 2 1.1 4.1 2 7 1.8.4 0 .7-.3.8-.6l.8-2.2c0-.1.1-.1.2 0l.8 4.1c.1.3.4.6.7.5 4.9-.5 7.8-1.1 11-2.9.1-.1.3 0 .3.2v9c-.2 2.9-1.8 5.5-4.3 6.8z"/><path d="M20.6 34.7c0 .8.8 1.4 1.7 1.4.9 0 1.6-.6 1.7-1.4-.5.3-1 .5-1.7.5s-1.3-.2-1.7-.5zM16.1 29c-.5 0-1 .3-1.2.7-.2.2-.2.5-.2.8 0 .8.7 1.5 1.5 1.5s1.5-.7 1.5-1.5v-.4c-.3-.6-.9-1.1-1.6-1.1zm11.3 0c-.7 0-1.2.5-1.4 1.1 0 .1-.1.3-.1.4 0 .8.7 1.5 1.5 1.5s1.5-.7 1.5-1.5c0-.3-.1-.6-.3-.9-.3-.4-.7-.6-1.2-.6z"/></svg>

<?xml version="1.0" encoding="UTF-8"?>
<svg width="44px" height="49px" viewBox="0 0 44 49" version="1.1" xmlns="http://www.w3.org/2000/svg">
  <!-- Generator: Sketch 41.2 (35397) - http://www.bohemiancoding.com/sketch -->
  <title>girl_1</title>
  <desc>Created with Sketch.</desc>
  <defs></defs>
  <g id="Page-1" stroke="none" stroke-width="1" fill="none" fill-rule="evenodd">
    <g id="girl_1" fill="#000000">
      <g id="레이어_1">
        <path d="M32.8,10.3 C29,7.8 25.8,6.3 22.4,6.1 C22.4,6.1 22.4,6.1 22.4,6 L18,0.6 C17.7,0.2 17.2,0 16.6,0 C16,0 15.5,0.3 15.2,0.8 L11.8,5.3 C11.4,4.9 10.8,4.8 10.4,5.1 L7.5,7.4 C7.1,7.8 7,8.4 7.4,8.8 L7.4,8.8 L2.2,11 C1.7,11.2 1.2,11.7 1.1,12.2 C1,12.7 1,13.4 1.4,13.8 L5.2,18.7 C4.1,23.5 4.2,30 0.6,39.7 C0.5,40 0.4,40.3 0.6,40.6 C1.8,42.8 10.4,47.5 13.8,45.1 L14.1,44.9 C14.2,44.8 14.4,44.8 14.6,44.9 C22.9,49.2 21.2,49.2 29.4,44.9 C29.6,44.8 29.8,44.8 29.9,44.9 L30.2,45.1 C33.6,47.5 42.2,42.8 43.4,40.6 C43.6,40.3 43.5,40 43.4,39.7 C37.2,22.9 42,15.8 32.8,10.3 L32.8,10.3 Z M15.5,4.3 C15.6,4.1 15.8,4 16,4 C16.2,4 16.4,4.1 16.5,4.2 L18,6.2 C18.1,6.4 18.2,6.6 18.1,6.8 L18.1,6.8 C18,7 17.9,7.1 17.7,7.2 L15.4,8.2 L15.3,7.9 L14,6.3 L15.5,4.3 L15.5,4.3 Z M10.6,8.5 L10.6,8.5 C11.1,8.1 11.7,8.2 12,8.6 L12.6,9.3 L12.9,9.7 C13.3,10.1 13.2,10.8 12.7,11.1 L12.7,11.1 C12.3,11.5 11.6,11.4 11.3,11 L10.5,10 C10.1,9.5 10.2,8.9 10.6,8.5 L10.6,8.5 Z M5.2,13.4 C5.1,13.2 5.1,13 5.1,12.8 C5.1,12.6 5.3,12.4 5.5,12.4 L7.8,11.4 L8.5,12.3 L9.3,13.3 L7.8,15.3 C7.7,15.4 7.5,15.5 7.3,15.5 C7.1,15.5 6.9,15.4 6.8,15.3 L6.4,14.9 L5.2,13.4 L5.2,13.4 Z M28.8,40.4 C20.2,44.7 24,44.7 15.3,40.4 C12.8,39.1 11.2,36.5 11.2,33.7 L11.2,23.9 C11.2,23.8 11.3,23.7 11.5,23.7 C13.5,24.8 15.6,25.7 18.5,25.5 C18.9,25.5 19.2,25.2 19.3,24.9 L20.1,22.7 C20.1,22.6 20.2,22.6 20.3,22.7 L21.1,26.8 C21.2,27.1 21.5,27.4 21.8,27.3 C26.7,26.8 29.6,26.2 32.8,24.4 C32.9,24.3 33.1,24.4 33.1,24.6 L33.1,33.6 C32.9,36.5 31.3,39.1 28.8,40.4 L28.8,40.4 Z" id="Shape"></path>
        <path d="M20.6,34.7 C20.6,35.5 21.4,36.1 22.3,36.1 C23.2,36.1 23.9,35.5 24,34.7 C23.5,35 23,35.2 22.3,35.2 C21.6,35.2 21,35 20.6,34.7 Z" id="Shape"></path>
        <path d="M16.1,29 C15.6,29 15.1,29.3 14.9,29.7 C14.7,29.9 14.7,30.2 14.7,30.5 C14.7,31.3 15.4,32 16.2,32 C17,32 17.7,31.3 17.7,30.5 L17.7,30.1 C17.4,29.5 16.8,29 16.1,29 L16.1,29 Z" id="Shape"></path>
        <path d="M27.4,29 C26.7,29 26.2,29.5 26,30.1 C26,30.2 25.9,30.4 25.9,30.5 C25.9,31.3 26.6,32 27.4,32 C28.2,32 28.9,31.3 28.9,30.5 C28.9,30.2 28.8,29.9 28.6,29.6 C28.3,29.2 27.9,29 27.4,29 L27.4,29 Z" id="Shape"></path>
      </g>
    </g>
  </g>
</svg>
